X:246
T:Miss Lee Waltz
O:No 246 William Clarke of Feltwell
M:3/8
L:1/8
K:F
c|(A/B/) .c.c|d/e/ ff|G/A/ BB|B2A|G/g/f/e/d/c/|f/a/ c'c' |cde|f2::c|c'/b/ gg|g/f/ cc|c'/a/ ff|c/f/ aa|c'/b/ gg|g/e/ cc|c'/a/ ff|f2::c|c>BA|fef|d^cd|B2(G/B/)|A>Bc|c>BA|GGG|G2c|c>BA|fef|d^cd|B2G|A>Bc|c>BA|GFG|F2"DC"|]

